X:1
T:Title
%%score ( 1 2 3 ) { 4 | 5 }
L:1/8
M:3/4
K:F
V:1 treble nm="Grand Piano, Staff"
V:2 treble 
V:3 treble 
V:4 treble nm="Choir Pad, Staff-1"
V:5 bass 
V:1
 [FA]2 [FA]2 [FA]2 | [Fc]4 [FA]2 | [Fd]3 [Fc] [EA]2 | [FA]4 z2 | [DF]4 [CG]2 | %5
w: By~Fratino~M.~Theodora~Ku,~OSB * *|||||
 [CA][Fc] [FA]2 [EG]2 | [DF][DG] [CF]2 [A,C]2 | [A,D]4 z2 | [B,D][B,D] [B,D]2 [B,D]2 | %9
w: ||||
 [CF][CF] [CF]2 [A,F]2 | G4 z2 | [FA]4 z2 | [Fd]4 [Fd]2 | cd [Gc]2 [FA]2 | [EG][EG] [DF]2 [EG]2 | %15
w: ||||||
 F4 z2 | [Fd]4 [Fd]2 | cd [Gc]2 [FA]2 | [EG][EG] [DF]2 [EG]2 | F4 z2 |] %20
w: |||||
V:2
 x6 | x6 | x6 | x6 | x6 | x6 | x6 | x6 | x6 | x6 | C2 z G [DF][EG] | x6 | x6 | F2 z2 z2 | x6 | x6 | %16
 x6 | F2 z2 z2 | x6 | x6 |] %20
V:3
 x6 | x6 | x6 | x6 | x6 | x6 | x6 | x6 | x6 | x6 | z2 E2 z2 | x6 | x6 | x6 | x6 | x6 | x6 | x6 | %18
 x6 | x6 |] %20
V:4
 C2 C2 C2 | A,4 C2 | B,3 C C2 | D4 z2 | A,4 G,2 | F,A, C2 B,2 | A,B, A,2 G,2 | F,4 z2 | %8
 F,F, F,2 F,2 | F,F, F,2 F,2 | E,2 G,2 C2 | C4 z2 | B,4 B,2 | A,2 C2 C2 | B,B, A,2 B,2 | A,4 z2 | %16
 B,4 B,2 | A,2 C2 C2 | B,B, A,2 B,2 | A,4 z2 |] %20
V:5
 F,2 F,2 F,2 | F,4 F,2 | z2 z A, A,2 | D,4 z2 | D,4 E,2 | z F, F,2 C,2 | D,G,, A,,2 A,,2 | D,4 z2 | %8
 B,,B,, B,,2 z2 | A,,A,, A,,2 D,2 | C,2 C,2 C,2 | F,4 z2 | B,,4 B,,2 | F,2 E,2 F,2 | C,C, D,2 C,2 | %15
 F,4 z2 | B,,4 B,,2 | F,2 E,2 F,2 | C,C, D,2 C,2 | F,4 z2 |] %20

